Obsidian/actions/16s/go-first-symbolic-rtl.svg

<svg height="16" width="16" xmlns="http://www.w3.org/2000/svg"><g fill="#bebebe"><path d="m4.707 2.293-1.414 1.414 4.293 4.293-4.293 4.293 1.414 1.414 5.707-5.707zm6.295-.295-.002 1-.014 10-.002 1 2 .004.002-1 .014-10 .002-1z"/><path d="m4 13h-1v1h1zm0-11h-1v1h1z"/><path d="m4 2c-.554 0-1 .446-1 1s.446 1 1 1 1-.446 1-1-.446-1-1-1zm0 10c-.554 0-1 .446-1 1s.446 1 1 1 1-.446 1-1-.446-1-1-1z"/></g></svg>

<?xml version="1.0" encoding="UTF-8" standalone="no"?>
<svg
   xmlns:dc="http://purl.org/dc/elements/1.1/"
   xmlns:cc="http://creativecommons.org/ns#"
   xmlns:rdf="http://www.w3.org/1999/02/22-rdf-syntax-ns#"
   xmlns:svg="http://www.w3.org/2000/svg"
   xmlns="http://www.w3.org/2000/svg"
   xmlns:sodipodi="http://sodipodi.sourceforge.net/DTD/sodipodi-0.dtd"
   xmlns:inkscape="http://www.inkscape.org/namespaces/inkscape"
   width="16"
   height="16"
   version="1.1"
   id="svg10"
   sodipodi:docname="go-first-symbolic-rtl.svg"
   inkscape:version="0.92.2 2405546, 2018-03-11">
  <metadata
     id="metadata16">
    <rdf:RDF>
      <cc:Work
         rdf:about="">
        <dc:format>image/svg+xml</dc:format>
        <dc:type
           rdf:resource="http://purl.org/dc/dcmitype/StillImage" />
      </cc:Work>
    </rdf:RDF>
  </metadata>
  <defs
     id="defs14" />
  <sodipodi:namedview
     pagecolor="#ffffff"
     bordercolor="#666666"
     borderopacity="1"
     objecttolerance="10"
     gridtolerance="10"
     guidetolerance="10"
     inkscape:pageopacity="0"
     inkscape:pageshadow="2"
     inkscape:window-width="1920"
     inkscape:window-height="1010"
     id="namedview12"
     showgrid="false"
     inkscape:zoom="14.75"
     inkscape:cx="0.13559322"
     inkscape:cy="8"
     inkscape:window-x="0"
     inkscape:window-y="32"
     inkscape:window-maximized="1"
     inkscape:current-layer="svg10" />
  <g
     color="#000"
     fill="#474747"
     id="g8"
     style="fill:#bebebe;fill-opacity:1">
    <path
       d="M4.707 2.293L3.293 3.707 7.586 8l-4.293 4.293 1.414 1.414L10.414 8zM11.002 1.998l-.002 1-.014 10-.002 1 2 .004.002-1 .014-10 .002-1z"
       style="line-height:normal;font-variant-ligatures:normal;font-variant-position:normal;font-variant-caps:normal;font-variant-numeric:normal;font-variant-alternates:normal;font-feature-settings:normal;text-indent:0;text-align:start;text-decoration-line:none;text-decoration-style:solid;text-decoration-color:#000;text-transform:none;text-orientation:mixed;shape-padding:0;isolation:auto;mix-blend-mode:normal;marker:none;fill:#bebebe;fill-opacity:1"
       font-weight="400"
       font-family="sans-serif"
       white-space="normal"
       overflow="visible"
       id="path2" />
    <path
       d="M4 13H3v1h1zM4 2H3v1h1z"
       style="marker:none;fill:#bebebe;fill-opacity:1"
       overflow="visible"
       id="path4" />
    <path
       d="M4 2c-.554 0-1 .446-1 1s.446 1 1 1 1-.446 1-1-.446-1-1-1zM4 12c-.554 0-1 .446-1 1s.446 1 1 1 1-.446 1-1-.446-1-1-1z"
       style="marker:none;fill:#bebebe;fill-opacity:1"
       overflow="visible"
       id="path6" />
  </g>
</svg>
